mediabuilder/img/social/ytb.svg

<svg width="37" height="36" viewBox="0 0 37 36" fill="none" xmlns="http://www.w3.org/2000/svg">
<circle cx="18.5" cy="18" r="9" fill="white"/>
<path d="M32.7462 10.8724C32.5772 10.2453 32.2469 9.6734 31.7881 9.21362C31.3294 8.75383 30.7582 8.42222 30.1315 8.25177C27.8076 7.61367 18.5107 7.60328 18.5107 7.60328C18.5107 7.60328 9.21521 7.59289 6.88986 8.2028C6.26352 8.38109 5.69353 8.7174 5.23461 9.17944C4.77569 9.64148 4.44325 10.2137 4.2692 10.8413C3.65633 13.1651 3.65039 17.985 3.65039 17.985C3.65039 17.985 3.64446 22.8286 4.25288 25.1287C4.59419 26.4005 5.59585 27.4051 6.86908 27.7479C9.21669 28.386 18.4884 28.3964 18.4884 28.3964C18.4884 28.3964 27.7854 28.4068 30.1092 27.7984C30.7362 27.6282 31.3079 27.2974 31.7678 26.8385C32.2276 26.3797 32.5598 25.8087 32.7314 25.1822C33.3457 22.8598 33.3502 18.0414 33.3502 18.0414C33.3502 18.0414 33.3798 13.1963 32.7462 10.8724ZM15.5368 22.4502L15.5443 13.5465L23.2712 18.0058L15.5368 22.4502Z" fill="#FF0000"/>
</svg>

<svg width="37" height="36" fill="none" xmlns="http://www.w3.org/2000/svg"><circle cx="18.5" cy="18" r="9" fill="#fff"/><path d="M32.746 10.872a3.718 3.718 0 00-2.615-2.62c-2.323-.638-11.62-.649-11.62-.649s-9.296-.01-11.621.6a3.799 3.799 0 00-2.62 2.638c-.614 2.324-.62 7.144-.62 7.144s-.006 4.844.603 7.144a3.718 3.718 0 002.616 2.619c2.348.638 11.62.648 11.62.648s9.296.01 11.62-.598a3.732 3.732 0 002.622-2.616c.615-2.322.62-7.14.62-7.14s.029-4.846-.605-7.17zM15.536 22.45l.008-8.903 7.727 4.459-7.734 4.444z" fill="red"/></svg>
